!!!!SEGMENT: pl-cz--i-155--004_anonim--partita-es-allegro-molto.krn
!!!cenid: 18xx:2507
!!!COM: Anonim
!!!COM-rismid: pe30004985
!!!CDT:
!!!CNT:
!!!OTL: Partita Es
!!!PDT:
!!!AGN: Secular; Partita
!!!SMS-siglum: PL-CZ
!!!SMS-shelfmark: I-155
!!!SMS-shelfwork: 004 W
!!!SMS-variant:
!!!SMS-altvar:
!!!NIFC-rismid: 1001012512
!!!URL-scan: http://repozytorium.nifc.pl/skany/pl-cz-nut--i-155
!!!ONB-nifc: UWAGA: Parthia [4] (004), część Allegro molto (m.in. skan 0010). Uwaga: 5 partii
!!!key:
**kern	**dynam	**kern	**dynam	**kern	**dynam	**kern	**dynam	**kern	**dynam
*part5	*part5	*part4	*part4	*part3	*part3	*part2	*part2	*part1	*part1
*staff5	*	*staff4	*	*staff3	*	*staff2	*	*staff1	*
*Icor	*	*Icor	*	*Ifagot	*	*Iclars	*	*Iclars	*
*I"Corno Secondo	*	*I"Corno Primo.	*	*I"Fagotto	*	*I"Clarinetto Secondo	*	*I"Clarinetto Primo	*
*I'cor 2 in E|b	*	*I'cor 1 in E|b	*	*I'fag	*	*I'cl 2	*	*I'cl 1	*
*clefG2	*	*clefG2	*	*clefF4	*	*clefG2	*	*clefG2	*
*ITrd5c9	*	*ITrd5c9	*	*	*	*ITrd1c2	*	*ITrd1c2	*
*k[b-e-a-]	*	*k[b-e-a-]	*	*k[b-e-a-]	*	*k[b-e-a-]	*	*k[b-e-a-]	*
*E-:	*	*E-:	*	*E-:	*	*E-:	*	*E-:	*
*M3/4	*	*M3/4	*	*M3/4	*	*M3/4	*	*M3/4	*
=1	=1	=1	=1	=1	=1	=1	=1	=1	=1
*all\right	*	*all\right	*	*all\right	*	*all\right	*	*all\right	*
!LO:TX:a:t=in dis\nParthia 4	!	!LO:TX:a:t=Parthia in EB.\n4	!	!LO:TX:a:t=Partia\n4	!	!LO:TX:a:t=Parthia\n4	!	!LO:TX:a:t=Parthia Allo Molto\n4	!
!	!	!	!	!LO:TX:a:t=P:problem:znaki BB- E- A-	!	!	!	!	!
4G/	.	4e-\	.	8r	.	4G/	.	4e-/	.
!	!	!	!	!LO:TX:t=P:problem:mixed beam	!	!	!	!	!
.	.	.	.	8E-\L	.	.	.	.	.
4r	.	4r	.	8EE-/J	.	4r	.	8r	.
.	.	.	.	8r	.	.	.	8e-/L	.
4r	.	4r	.	4r	.	4r	.	(8d/	.
.	.	.	.	.	.	.	.	8e-/J)	.
=2	=2	=2	=2	=2	=2	=2	=2	=2	=2
2.r	.	2.r	.	2.r	.	2.r	.	8g/L	.
.	.	.	.	.	.	.	.	8e-/	.
.	.	.	.	.	.	.	.	8b-/	.
.	.	.	.	.	.	.	.	8g/	.
.	.	.	.	.	.	.	.	8ee-/	.
.	.	.	.	.	.	.	.	8b-/J	.
=3	=3	=3	=3	=3	=3	=3	=3	=3	=3
4G/	.	4e-\	.	8r	.	4b-\	.	4gg\	.
!	!	!	!	!LO:TX:t=P:problem:mixed beam	!	!	!	!	!
.	.	.	.	8E-\L	.	.	.	.	.
4r	.	4r	.	8EE-/J	.	4r	.	8r	.
.	.	.	.	8r	.	.	.	8gg\L	.
4r	.	4r	.	4r	.	4r	.	(8dd\	.
.	.	.	.	.	.	.	.	8ee-\J)	.
=4	=4	=4	=4	=4	=4	=4	=4	=4	=4
2.r	.	2.r	.	2.r	.	2.r	.	8a/L	.
.	.	.	.	.	.	.	.	8b-/	.
.	.	.	.	.	.	.	.	8f#X/	.
.	.	.	.	.	.	.	.	8g/	.
.	.	.	.	.	.	.	.	8d/	.
.	.	.	.	.	.	.	.	8e-/J	.
!	!	!	!	!	!	!	!	!LO:LB:g=original	!
=5	=5	=5	=5	=5	=5	=5	=5	=5	=5
4B-/	.	4b-\	.	8r	.	4B-/	.	4d/	.
!	!	!	!	!LO:TX:t=P:problem:mixed beam	!	!	!	!	!
.	.	.	.	8F\L	.	.	.	.	.
4r	.	4r	.	8FF/J	.	4r	.	8r	.
.	.	.	.	8r	.	.	.	8d/L	.
4r	.	4r	.	4r	.	4r	.	8c#X/	.
.	.	.	.	.	.	.	.	8d/J	.
=6	=6	=6	=6	=6	=6	=6	=6	=6	=6
2.r	.	2.r	.	2.r	.	2.r	.	8f/L	.
.	.	.	.	.	.	.	.	8d/	.
.	.	.	.	.	.	.	.	8b-/	.
.	.	.	.	.	.	.	.	8f/	.
.	.	.	.	.	.	.	.	8dd/	.
.	.	.	.	.	.	.	.	8b-/J	.
=7	=7	=7	=7	=7	=7	=7	=7	=7	=7
4B-/	.	4b-\	.	8r	.	4b-\	.	4ff\	.
!	!	!	!	!LO:TX:t=P:problem:mixed beam	!	!	!	!	!
.	.	.	.	8D\L	.	.	.	.	.
4r	.	4r	.	8DD/J	.	4r	.	8r	.
!	!	!	!	!LO:LB:g=original	!	!	!	!	!
.	.	.	.	8r	.	.	.	8aa-\L	.
4r	.	4r	.	4r	.	4r	.	(8eeX\	.
.	.	.	.	.	f	.	.	8ff\J)	.
=8	=8	=8	=8	=8	=8	=8	=8	=8	=8
!	!	!	!	!LO:TX:a:t=1	!	!	!	!	!
2.r	.	2.r	.	2.r	.	2.r	.	8cc#X\L	.
.	.	.	.	.	.	.	.	8dd\	.
.	.	.	.	.	.	.	.	8a\	.
.	.	.	.	.	.	.	.	8b-\	.
.	.	.	.	.	.	.	.	8a-X\	.
.	.	.	.	.	.	.	.	8f\J	.
!LO:LB:g=original	!	!	!	!	!	!	!	!	!
=9	=9	=9	=9	=9	=9	=9	=9	=9	=9
*	*	*2\right	*	*	*	*	*	*	*
!	!	!	!	!LO:TX:t=P:problem:mixed beam	!	!	!LO:DY:a:t=for	!	!LO:DY:rj
2.E-/	.	2.e-\	.	8EE-/L	.	2.G/	f	2.e-/	f
.	.	.	.	8E-\J	.	.	.	.	.
*	*	*	*	*tremolo	*	*	*	*	*
*	*	*	*	*2\right	*	*	*	*	*
.	.	.	.	8E-\L	.	.	.	.	.
.	.	.	.	8E-\	.	.	.	.	.
.	.	.	.	8E-\	.	.	.	.	.
.	.	.	.	8E-\J	.	.	.	.	.
=10	=10	=10	=10	=10	=10	=10	=10	=10	=10
*	*	*	*	*	*	*	*	*2\right	*
!	!	!	!	!LO:TX:t=P:problem:mixed beam	!	!	!	!	!
2.E-/	.	2.e-\	.	8EE-/L	.	2.c/	.	2.a-\	.
.	.	.	.	8E-\J	.	.	.	.	.
.	.	.	.	8E-\L	.	.	.	.	.
.	.	.	.	8E-\	.	.	.	.	.
.	.	.	.	8E-\	.	.	.	.	.
.	.	.	.	8E-\J	.	.	.	.	.
!	!	!	!	!	!	!LO:LB:g=original	!	!	!
=11	=11	=11	=11	=11	=11	=11	=11	=11	=11
!	!	!	!	!LO:TX:t=P:problem:mixed beam	!	!	!	!	!
2.B-/	.	2.f\	.	8EE-/L	.	2.A-/	.	2.f/	.
.	.	.	.	8E-\J	.	.	.	.	.
.	.	.	.	8E-\L	.	.	.	.	.
.	.	.	.	8E-\	.	.	.	.	.
.	.	.	.	8E-\	.	.	.	.	.
.	.	.	.	8E-\J	.	.	.	.	.
=12	=12	=12	=12	=12	=12	=12	=12	=12	=12
!	!	!	!	!LO:TX:t=P:problem:mixed beam	!	!	!	!	!
2.B-/	.	2.f\	.	8EE-/L	.	2.d/	.	2.b-\	.
.	.	.	.	8E-\J	.	.	.	.	.
.	.	.	.	8E-\L	.	.	.	.	.
.	.	.	.	8E-\	.	.	.	.	.
.	.	.	.	8E-\	.	.	.	.	.
.	.	.	.	8E-\J	.	.	.	.	.
*	*	*	*	*Xtremolo	*	*	*	*	*
!	!	!LO:LB:g=original	!	!	!	!	!	!LO:LB:g=original	!
=13	=13	=13	=13	=13	=13	=13	=13	=13	=13
*	*	*	*	*	*	*tremolo	*	*	*
8r	.	8r	.	2.e-\	.	8g/L	p	2.ee-\	p
8E-/	.	8e-\	.	.	.	8b-/	.	.	.
*tremolo	*	*tremolo	*	*	*	*	*	*	*
8E-/L	.	8e-\L	.	.	.	8g/	.	.	.
8E-/	.	8e-\	.	.	.	8b-/	.	.	.
8E-/	.	8e-\	.	.	.	8g/	.	.	.
8E-/J	.	8e-\J	.	.	.	8b-/J	.	.	.
=14	=14	=14	=14	=14	=14	=14	=14	=14	=14
*	*	*	*	*	*	*2\right	*	*	*
8r	.	8r	.	2.c\	.	8ee-\L	.	2.aa-\	.
8E-/	.	8e-\	.	.	.	8cc\	.	.	.
8E-/L	.	8e-\L	.	.	.	8ee-\	.	.	.
8E-/	.	8e-\	.	.	.	8cc\	.	.	.
8E-/	.	8e-\	.	.	.	8ee-\	.	.	.
8E-/J	.	8e-\J	.	.	.	8cc\J	.	.	.
=15	=15	=15	=15	=15	=15	=15	=15	=15	=15
8r	.	8r	.	2.d\	.	8g\L	.	2.ff\	.
8E-/	.	8e-\	.	.	.	8b-\	.	.	.
8E-/L	.	8e-\L	.	.	.	8g\	.	.	.
8E-/	.	8e-\	.	.	.	8b-\	.	.	.
8E-/	.	8e-\	.	.	.	8g\	.	.	.
8E-/J	.	8e-\J	.	.	.	8b-\J	.	.	.
=16	=16	=16	=16	=16	=16	=16	=16	=16	=16
8r	.	8r	.	2.B-\	.	8dd\L	.	2.bb-\	.
8E-/	.	8e-\	.	.	.	8b-\J	.	.	.
8E-/L	.	8e-\L	.	.	.	8ff\L	.	.	.
8E-/	.	8e-\	.	.	.	8dd\	.	.	.
8E-/	.	8e-\	.	.	.	8ff\	.	.	.
8E-/J	.	8e-\J	.	.	.	8dd\J	.	.	.
*Xtremolo	*	*Xtremolo	*	*	*	*Xtremolo	*	*	*
=17	=17	=17	=17	=17	=17	=17	=17	=17	=17
!	!	!	!	!	!	!	!LO:DY:t=for	!	!
4E-/	.	4e-\	.	4e-\	.	8ee-\L	f	8gg\L	.
.	.	.	.	.	.	8gg\	.	8bb-\	.
4r	.	4r	.	4r	.	8ff\	.	8bb-\	.
.	.	.	.	.	.	8ee-\	.	8gg\	.
4r	.	4r	.	4r	.	8dd\	.	8ff\	.
.	.	.	.	.	.	8ee-\J	.	8gg\J	.
!	!	!	!	!LO:LB:g=original	!	!	!	!	!
=18	=18	=18	=18	=18	=18	=18	=18	=18	=18
2.r	.	2.r	.	8c\L	.	4ee-\	.	8aa-\L	.
.	.	.	.	8B-\	.	.	.	8gg\	.
.	.	.	.	8A-\	.	8cc\L	.	8ff\	.
.	.	.	.	8G\	.	8b-\J	.	8ee-\	.
.	.	.	.	8A-\	.	8f/L	.	8dd\	.
.	.	.	.	8An\J	.	8e-/J	.	8cc\J	.
=19	=19	=19	=19	=19	=19	=19	=19	=19	=19
4B-/	.	4f\	.	4B-\	.	4d/	.	8b-\L	.
.	.	.	.	.	.	.	.	8f\	.
4B-/	.	4f\	.	4BB-/	.	4d/	.	8b-\	.
.	.	.	.	.	.	.	.	8dd\	.
4B-/	.	4f\	.	4BB-/	.	4d/	.	8ff\	.
.	.	.	.	.	.	.	.	8dd\J	.
!LO:LB:g=original	!	!	!	!	!	!	!	!	!
=20	=20	=20	=20	=20	=20	=20	=20	=20	=20
!	!	!	!	!LO:TX:t=P:problem:mixed beam	!	!	!	!	!
4B-/	.	4f\	.	8BB-/L	.	4d/	.	4b-\	.
.	.	.	.	8B-\	.	.	.	.	.
4r	.	4r	.	8F\	.	4r	.	4r	.
.	.	.	.	8B-\	.	.	.	.	.
4r	.	4r	.	8D\	.	4r	.	4r	.
.	.	.	.	8F\J	.	.	.	.	.
!	!	!	!	!	!	!LO:LB:g=original	!	!LO:LB:g=original	!
=21	=21	=21	=21	=21	=21	=21	=21	=21	=21
!	!	!	!	!	!LO:DY:rj	!	!	!	!
4B-/	.	4f\	.	4BB-/	p	8r	.	2.ff\	p
.	.	.	.	.	.	8dd\L	p	.	.
4r	.	4r	.	4r	.	8b-\	.	.	.
.	.	.	.	.	.	8dd\	.	.	.
4r	.	4r	.	4r	.	8b-\	.	.	.
.	.	.	.	.	.	8dd\J	.	.	.
=22	=22	=22	=22	=22	=22	=22	=22	=22	=22
!	!	!	!	!	!	!	!	!LO:TX:b:t=dolc&colon;	!
4G/	.	4g\	.	4BBn/	.	8r	.	2dd\	.
.	.	.	.	.	.	8dd\L	.	.	.
4r	.	4r	.	4r	.	8bX\	.	.	.
.	.	.	.	.	.	8dd\	.	.	.
4r	.	4r	.	4r	.	8b\	.	4gg\	.
.	.	.	.	.	.	8dd\J	.	.	.
!	!	!LO:LB:g=original	!	!	!	!	!	!	!
=23	=23	=23	=23	=23	=23	=23	=23	=23	=23
4G/	.	4g\	.	8r	.	8r	.	(4ff\	.
!	!	!	!	!LO:TX:t=P:problem:mixed beam	!	!LO:TX:t=P:problem:mixed beam	!	!	!
.	.	.	.	8C/L	.	8g/L	.	.	.
4G/	.	4g\	.	8c\	.	8ee-\	.	4ee-\)	.
.	.	.	.	8B-\	.	8dd\	.	.	.
4G/	.	4g\	.	8An\	.	8cc\	.	4ee-\|	.
.	.	.	.	8G\J	.	8b-X\J	.	.	.
!	!	!	!	!LO:LB:g=original	!	!	!	!	!
=24	=24	=24	=24	=24	=24	=24	=24	=24	=24
4G/	.	4g\	.	8F\L	.	8a/L	.	2ee-\	.
.	.	.	.	8En\	.	8g/J	.	.	.
4r	.	4r	.	8F\	.	8a\L	.	.	.
.	.	.	.	8G\	.	8b-\	.	.	.
4r	.	4r	.	8An\	.	8cc\	.	4r	.
.	.	.	.	8G\J	.	8b-\J	.	.	.
=25	=25	=25	=25	=25	=25	=25	=25	=25	=25
4f\	.	4f\	.	4F\	.	8r	.	2.ee-\	.
.	.	.	.	.	.	8a\	.	.	.
*	*	*	*	*	*	*tremolo	*	*	*
4r	.	4r	.	4r	.	8f/L	.	.	.
.	.	.	.	.	.	8a/	.	.	.
4r	.	4r	.	4r	.	8f/	.	.	.
.	.	.	.	.	.	8a/J	.	.	.
=26	=26	=26	=26	=26	=26	=26	=26	=26	=26
4f\	.	4f\	.	4AAn/	.	8r	.	2cc\	.
.	.	.	.	.	.	8cc\	.	.	.
4r	.	4r	.	4r	.	8a\L	.	.	.
.	.	.	.	.	.	8cc\	.	.	.
4r	.	4r	.	4r	.	8a\	.	4ff\	.
.	.	.	.	.	.	8cc\J	.	.	.
*	*	*	*	*	*	*Xtremolo	*	*	*
=27	=27	=27	=27	=27	=27	=27	=27	=27	=27
4B-/	.	4f\	.	4BB-/	.	8r	.	4ee-\	.
!	!	!	!	!	!	!LO:TX:t=P:problem:mixed beam	!	!	!
.	.	.	.	.	.	8f/L	.	.	.
4B-/	.	4f\	.	4r	.	8b-\	.	4dd\	.
.	.	.	.	.	.	8B-/	.	.	.
4B-/	.	4f\	.	4r	.	8d/	.	4dd\	.
.	.	.	.	.	.	8f/J	.	.	.
=28	=28	=28	=28	=28	=28	=28	=28	=28	=28
!	!	!	!	!LO:TX:a:t=1	!	!	!	!	!
4B-/	.	4f\	.	2.r	.	8b-\L	.	2dd\	.
.	.	.	.	.	.	8a\	.	.	.
4r	.	4r	.	.	.	8b-\	.	.	.
.	.	.	.	.	.	8cc\	.	.	.
4r	.	4r	.	.	.	8dd\	.	4r	.
.	.	.	.	.	.	8ee-\J	.	.	.
=29	=29	=29	=29	=29	=29	=29	=29	=29	=29
2.B-/	.	2.f\	.	8r	.	[<2.ff\	.	2.r	.
.	.	.	.	8D\L	.	.	.	.	.
.	.	.	.	8d\	.	.	.	.	.
.	.	.	.	8c#X\	.	.	.	.	.
.	.	.	.	8d\	.	.	.	.	.
.	.	.	.	8cn\J	.	.	.	.	.
!LO:LB:g=original	!	!	!	!	!	!	!	!	!
=30	=30	=30	=30	=30	=30	=30	=30	=30	=30
2.G/	.	2.g\	.	8r	.	2.ff\]	.	2gg\	.
.	.	.	.	8Bn\L	.	.	.	.	.
.	.	.	.	8An\	.	.	.	.	.
.	.	.	.	8G\	.	.	.	.	.
.	.	.	.	8A\	.	.	.	4dd\	.
.	.	.	.	8B\J	.	.	.	.	.
!	!	!	!	!LO:LB:g=original	!	!	!	!	!
=31	=31	=31	=31	=31	=31	=31	=31	=31	=31
!	!	!	!	!LO:TX:t=P:problem:mixed beam	!	!	!	!	!
2.G/	.	2.g\	.	8c\L	.	[<2.ee-\	.	4ee-\	.
.	.	.	.	8C/	.	.	.	.	.
!	!	!	!	!	!	!	!	!LO:LB:g=original	!
.	.	.	.	8c\	.	.	.	8cc\L	.
.	.	.	.	8Bn\	.	.	.	8dd\	.
.	.	.	.	8c\	.	.	.	8ee-\	.
.	.	.	.	8B-X\J	.	.	.	8eeX\J	.
=32	=32	=32	=32	=32	=32	=32	=32	=32	=32
*2\right	*	*	*	*	*	*	*	*	*
2.f\	.	2.f\	.	8An\L	.	2.ee-\]	.	2ff\	.
.	.	.	.	8G\	.	.	.	.	.
.	.	.	.	8A\	.	.	.	.	.
.	.	.	.	8F\	.	.	.	.	.
.	.	.	.	8G\	.	.	.	4cc\	.
.	.	.	.	8A\J	.	.	.	.	.
=33	=33	=33	=33	=33	=33	=33	=33	=33	=33
4B-/	.	4f\	.	4B-\	.	4dd\	.	4dd\	.
4r	.	4r	.	4c\	.	4ee-\	.	4r	.
4r	.	4r	.	4d\	.	4ff\	.	4r	.
=34	=34	=34	=34	=34	=34	=34	=34	=34	=34
2.r	.	2.r	.	4G\	.	4b-\	.	2.r	.
.	.	.	.	4An\	.	4cc\	.	.	.
.	.	.	.	4B-\	.	4dd\	.	.	.
!	!	!LO:LB:g=original	!	!	!	!	!	!	!
=35	=35	=35	=35	=35	=35	=35	=35	=35	=35
!	!	!	!	!	!	!	!	!	!LO:DY:t=fo
4f\	.	4g\	.	4E-\	.	4b-\	.	4gg\	f
4r	.	4r	.	4F\	.	4r	.	4aa\	.
4r	.	4r	.	4G\	.	4r	.	4bb-\	.
=36	=36	=36	=36	=36	=36	=36	=36	=36	=36
4e-\	.	4g\	.	4C\	.	4cc\	.	4ee-\	.
4r	.	4r	.	4D\	.	4r	.	4ff\	.
4r	.	4r	.	4En\	.	4r	.	4gg\	.
!	!	!	!	!	!	!LO:LB:g=original	!	!	!
=37	=37	=37	=37	=37	=37	=37	=37	=37	=37
!	!LO:HP:a	!	!LO:HP:a	!LO:TX:t=P:problem:mixed beam	!	!	!	!	!LO:HP:a
2.f\	<[	2.f\	<[	8AAn/L	.	8e-/	.	8cc\	<
.	.	.	.	8An\	.	4e-/	.	4cc\	.
.	.	.	.	8c\	.	.	.	.	.
.	.	.	.	8B-\J	.	4e-/	.	4cc\	.
!	!	!	!	!LO:LB:g=original	!	!	!	!	!
.	.	.	.	8A\L	.	.	.	.	.
.	.	.	.	8G\J	.	8e-/	.	8cc\	[
=38	=38	=38	=38	=38	=38	=38	=38	=38	=38
4f\	.	4f\	.	4F\	.	2a\	fz	4.ff\	.
4r	.	4r	.	4F#X\	.	.	.	.	.
.	.	.	.	.	.	.	.	8ee-\	.
4r	.	4r	.	4G\	.	4b-\	.	4dd\	.
=39	=39	=39	=39	=39	=39	=39	=39	=39	=39
.	.	.	.	.	.	.	.	16qqdd/	.
4r	.	4r	.	4E-\	.	8g/L	.	4cc\	.
.	.	.	.	.	.	8e-/J	.	.	.
4f\	.	4f\	.	4F\	.	4d/	.	4b-\	.
4f\	.	4f\	.	4FF/	.	4c/	.	4a\	.
!	!	!	!	!	!	!	!	!LO:LB:g=original	!
=40	=40	=40	=40	=40	=40	=40	=40	=40	=40
!	!	!	!	!LO:TX:t=P:problem:mixed beam	!	!	!	!	!
8r	.	8r	.	8BB-/L	.	4d/	.	4b-\	.
8B-/L	.	8f\L	.	8B-\J	.	.	.	.	.
8B-/J	.	8f\J	.	4BB-/	.	8r	.	8r	.
8r	.	8r	.	.	.	8b-\L	.	8dd\L	.
4r	.	4r	.	4r	.	8a\	.	8cc\	.
.	.	.	.	.	.	8b-\J	.	8dd\J	.
!LO:LB:g=original	!	!	!	!	!	!	!	!	!
=41	=41	=41	=41	=41	=41	=41	=41	=41	=41
8r	.	8r	.	8r	.	4.cc\	.	4ee-\	.
!	!	!	!	!LO:TX:t=P:problem:mixed beam	!	!	!	!	!
8f\L	.	8f\L	.	8F\L	.	.	.	.	.
8f\J	.	8f\J	.	8FF/J	.	.	.	8r	.
8r	.	8r	.	8r	.	8a\L	.	8ff\L	.
4r	.	4r	.	4r	.	8b-\	.	8gg\	.
.	.	.	.	.	.	8cc\J	.	8aa\J	.
=42	=42	=42	=42	=42	=42	=42	=42	=42	=42
8r	.	8r	.	8r	.	4dd\	.	4bb-\	.
!	!	!	!	!LO:TX:t=P:problem:mixed beam	!	!	!	!	!
8B-/L	.	8f\L	.	8B-\L	.	.	.	.	.
8B-/J	.	8f\J	.	8BB-/J	.	8r	.	8r	.
8r	.	8r	.	8r	.	8b-\L	.	8dd\L	.
4r	.	4r	.	4r	.	8a\	.	8cc\	.
.	.	.	.	.	.	8b-\J	.	8dd\J	.
=43	=43	=43	=43	=43	=43	=43	=43	=43	=43
8r	.	8r	.	8r	.	4cc\	.	4ee-\	.
!	!	!	!	!LO:TX:t=P:problem:mixed beam	!	!	!	!	!
8f\L	.	8f\L	.	8F\L	.	.	.	.	.
8f\J	.	8f\J	.	8FF/J	.	8r	.	8r	.
!	!	!	!	!	!	!LO:LB:g=original	!	!	!
8r	.	8r	.	8r	.	8a\L	.	8ff\L	.
4r	.	4r	.	4r	.	8b-\	.	8gg\	.
.	.	.	.	.	.	8cc\J	.	8aa\J	.
!	!	!LO:LB:g=original	!	!LO:LB:g=original	!	!	!	!	!
=44	=44	=44	=44	=44	=44	=44	=44	=44	=44
4B-/	.	4f\	.	8r	.	4dd\	.	4bb-\	.
.	.	.	.	8B-\L	.	.	.	.	.
4B-/	.	4f\	.	8F\	.	4d/	.	4b-\	.
.	.	.	.	8B-\	.	.	.	.	.
4B-/	.	4f\	.	8D\	.	4d/	.	4b-\	.
.	.	.	.	8F\J	.	.	.	.	.
=45	=45	=45	=45	=45	=45	=45	=45	=45	=45
!	!	!	!	!	!	!	!	!LO:TX:b:t=45	!
2B-/	.	2f\	.	4BB-/	.	2d/	.	2b-\	.
.	.	.	.	4B-\	.	.	.	.	.
!LO:TX:b:t=45	!	!LO:TX:b:t=45	!	!LO:TX:b:t=45	!	!LO:TX:b:t=45	!	!	!
4r	.	4r	.	4r	.	4r	.	4ryy	.
=46:|!	=46:|!	=46:|!	=46:|!	=46:|!	=46:|!	=46:|!	=46:|!	=46:|!	=46:|!
*	*	*	*	*tremolo	*	*	*	*	*
!	!	!	!	!	!	!	!	!LO:TX:a:t=2	!
!	!	!	!	!	!LO:DY:t=p&colon;	!	!	!LO:N:vis=0	!
2.B-/	p	2.f\	.	8d\L	p	2.ff\	p	1.r	.
.	.	.	.	8f\	.	.	.	.	.
.	.	.	.	8d\	.	.	.	.	.
.	.	.	.	8f\	.	.	.	.	.
.	.	.	.	8d\	.	.	.	.	.
.	.	.	.	8f\J	.	.	.	.	.
=47	=47	=47	=47	=47	=47	=47	=47	=47	=47
2.B-/	.	2.f\	.	8d\L	.	2dd\	.	.	.
.	.	.	.	8f\	.	.	.	.	.
.	.	.	.	8d\	.	.	.	.	.
.	.	.	.	8f\	.	.	.	.	.
.	.	.	.	8d\	.	4b-\	.	.	.
.	.	.	.	8f\J	.	.	.	.	.
!	!	!	!	!	!	!	!	!LO:LB:g=original	!
=48	=48	=48	=48	=48	=48	=48	=48	=48	=48
2.f\	.	2.f\	.	8e-\L	.	(4b-\	.	2.ccc\	p
.	.	.	.	8f\	.	.	.	.	.
.	.	.	.	8e-\	.	4a\)	.	.	.
.	.	.	.	8f\	.	.	.	.	.
.	.	.	.	8e-\	.	4a\|	.	.	.
.	.	.	.	8f\J	.	.	.	.	.
=49	=49	=49	=49	=49	=49	=49	=49	=49	=49
!	!	!	!	!	!	!LO:SIC:v:s=2bn\	!	!	!
2.f\	.	2.f\	.	8e-\L	.	2a-\	.	2aa\	.
.	.	.	.	8f\	.	.	.	.	.
.	.	.	.	8e-\	.	.	.	.	.
.	.	.	.	8f\	.	.	.	.	.
.	.	.	.	8e-\	.	4r	.	4ff\	.
.	.	.	.	8f\J	.	.	.	.	.
=50	=50	=50	=50	=50	=50	=50	=50	=50	=50
*	*	*	*	*rep	*	*	*	*	*
!	!	!LO:TX:t=P:problem:tt.50-53 zapisane repetycją	!	!	!	!	!	!	!
2.f\	.	2.f\yy	.	8e-\L	.	2.ee-\	.	4ff\	.
.	.	.	.	8f\	.	.	.	.	.
.	.	.	.	8e-\	.	.	.	4a\	.
.	.	.	.	8f\	.	.	.	.	.
.	.	.	.	8e-\	.	.	.	4a\	.
.	.	.	.	8f\J	.	.	.	.	.
*	*	*	*	*Xrep	*	*	*	*	*
!LO:LB:g=original	!	!	!	!LO:LB:g=original	!	!	!	!	!
=51	=51	=51	=51	=51	=51	=51	=51	=51	=51
!	!	!	!	!	!	!	!	!LO:SIC:v:s=2bn\	!
2.f\	.	2.f\yy	.	8d\L	.	2cc\	.	2a-\	.
.	.	.	.	8f\	.	.	.	.	.
.	.	.	.	8d\	.	.	.	.	.
.	.	.	.	8f\	.	.	.	.	.
.	.	.	.	8d\	.	4a\	.	4r	.
.	.	.	.	8f\J	.	.	.	.	.
*	*	*	*	*Xtremolo	*	*	*	*	*
!	!	!	!	!	!	!LO:LB:g=original	!	!	!
=52	=52	=52	=52	=52	=52	=52	=52	=52	=52
2.B-/	.	2.f\yy	.	8d\L	.	4f/	.	2.bb-\	.
.	.	.	.	8f\	.	.	.	.	.
.	.	.	.	8d\	.	4b-\	.	.	.
.	.	.	.	8B-\	.	.	.	.	.
.	.	.	.	8F\	.	4b-\	.	.	.
.	.	.	.	8E-\J	.	.	.	.	.
=53	=53	=53	=53	=53	=53	=53	=53	=53	=53
2.B-/	.	2.f\yy	.	4D\	.	2b-\	.	2ff\	.
.	.	.	.	4r	.	.	.	.	.
.	.	.	.	4r	.	4r	.	4dd\	.
=54	=54	=54	=54	=54	=54	=54	=54	=54	=54
*	*	*	*	*	*	*	*	*tremolo	*
4B-/	.	4f\	.	2.r	.	8r	.	8b-\L	.
.	.	.	.	.	.	8d/L	.	8b-\	.
4r	.	4r	.	.	.	8d/	.	8b-\	.
.	.	.	.	.	.	8d/	.	8b-\J	.
*	*	*	*	*	*	*	*	*Xtremolo	*
4r	.	4r	.	.	.	(8d/	.	(8b-\L	.
.	.	.	.	.	.	8c/J)	.	8a\J)	.
=55	=55	=55	=55	=55	=55	=55	=55	=55	=55
!	!	!	!	!	!	!	!	!LO:TX:t=P:problem:mixed beam	!
2.r	.	2.r	.	8r	.	8r	.	8f/L	.
.	.	.	.	8B-\L	.	8b-\L	.	8dd\	.
.	.	.	.	8B-\	.	8b-\	.	8dd\	.
.	.	.	.	8B-\	.	8b-\J	.	8dd\	.
.	.	.	.	8B-\	.	(8b-\L	.	(8dd\	.
.	.	.	.	8An\J	.	8a\J)	.	8cc\J)	.
!	!	!	!	!	!	!	!	!LO:LB:g=original	!
=56	=56	=56	=56	=56	=56	=56	=56	=56	=56
*	*	*	*	*tremolo	*	*	*	*	*
!	!LO:HP:a	!	!LO:HP:a	!	!	!LO:TX:t=P:problem:mixed beam	!	!	!
2.f\	<	2.f\	<	8c\L	.	8f/L	.	2.ff\	<
.	.	.	.	8c\	.	8dd\	.	.	.
.	.	.	.	8c\	.	8dd\	.	.	.
.	.	.	.	8c\J	.	8dd\J	.	.	.
*	*	*	*	*Xtremolo	*	*	*	*	*
.	.	.	.	8c\L	.	(8dd\L	.	.	.
.	.	.	.	8B-\J	.	8cc\J)	.	.	.
=57	=57	=57	=57	=57	=57	=57	=57	=57	=57
*	*	*	*	*	*	*tremolo	*	*	*
2f\	[	2f\	[	4An\	.	8ee-\L	.	2.ff\	[[
.	.	.	.	.	.	8ee-\	.	.	.
.	.	.	.	4r	.	8ee-\	.	.	.
.	.	.	.	.	.	8ee-\J	.	.	.
*	*	*	*	*	*	*Xtremolo	*	*	*
4r	.	4r	.	4r	.	(8ee-\L	.	.	.
.	.	.	.	.	.	8dd\J)	.	.	.
!	!	!	!	!	!	!LO:LB:g=original	!	!	!
=58	=58	=58	=58	=58	=58	=58	=58	=58	=58
!LO:N:vis=00	!	!LO:N:vis=00	!	!	!	!	!LO:DY:rj	!	!
0.r	.	0.r	.	4An\	.	4cc\	f	8ff#X\L	.
!	!	!	!	!	!	!	!	!	!LO:DY:t=for
.	.	.	.	.	.	.	.	16ff#\L	f
.	.	.	.	.	.	.	.	16gg\JJ	.
.	.	.	.	4A\	.	4r	.	8aa\L	.
.	.	.	.	.	.	.	.	8dd\	.
.	.	.	.	4A\	.	4r	.	8dd\	.
.	.	.	.	.	.	.	.	8dd\J	.
!	!	!	!	!LO:LB:g=original	!	!	!	!	!
=59	=59	=59	=59	=59	=59	=59	=59	=59	=59
.	.	.	.	4B-\	.	4f#X/	.	8ee-\L	p
.	.	.	.	.	.	.	.	8dd\	.
.	.	.	.	4r	.	4f#/	.	8ee-\	.
.	.	.	.	.	.	.	.	8dd\	.
.	.	.	.	4r	.	4f#/	.	8ee-\	.
.	.	.	.	.	.	.	.	8dd\J	.
=60	=60	=60	=60	=60	=60	=60	=60	=60	=60
.	.	.	.	4B-\	.	4g/	.	8dd\L	.
.	.	.	.	.	.	.	.	16gg\L	.
.	.	.	.	.	.	.	.	16aa\JJ	.
.	.	.	.	4B-\	.	4r	.	8bb-\L	.
.	.	.	.	.	.	.	.	8dd\	.
.	.	.	.	4B-\	.	4r	.	8dd\	.
.	.	.	.	.	.	.	.	8dd\J	.
=61	=61	=61	=61	=61	=61	=61	=61	=61	=61
.	.	.	.	4c\	.	4g/	.	8ee-\L	.
.	.	.	.	.	.	.	.	8dd\	.
.	.	.	.	4r	.	4g/	.	8ee-\	.
.	.	.	.	.	.	.	.	8dd\	.
.	.	.	.	4r	.	4g/	.	8ee-\	.
.	.	.	.	.	.	.	.	8dd\J	.
!	!	!	!	!	!	!	!	!LO:LB:g=original	!
=62	=62	=62	=62	=62	=62	=62	=62	=62	=62
!LO:N:vis=0	!	!LO:N:vis=0	!	!	!	!	!	!	!
1.r	.	1.r	.	4B-\	.	4a\	p	8dd\L	.
!	!	!	!	!	!	!	!	!	!LO:DY:t=p&colon;
.	.	.	.	.	.	.	.	16ff#X\L	p
.	.	.	.	.	.	.	.	16gg\JJ	.
.	.	.	.	4r	.	4r	.	8bb-\L	.
.	.	.	.	.	.	.	.	8dd\	.
.	.	.	.	4r	.	4r	.	8dd\	.
.	.	.	.	.	.	.	.	8dd\J	.
=63	=63	=63	=63	=63	=63	=63	=63	=63	=63
.	.	.	.	2.B-\	.	4g/	.	8dd\L	.
.	.	.	.	.	.	.	.	16gg\L	.
.	.	.	.	.	.	.	.	16aa\JJ	.
.	.	.	.	.	.	4r	.	8bb-\L	.
.	.	.	.	.	.	.	.	8dd\	.
.	.	.	.	.	.	4r	.	8dd\	.
.	.	.	.	.	.	.	.	8dd\J	.
=64	=64	=64	=64	=64	=64	=64	=64	=64	=64
2.e-\	.	2.g\	.	2.B-\	.	2.g/	.	8ee-\L	.
.	.	.	.	.	.	.	.	16gg\L	.
.	.	.	.	.	.	.	.	16aa-X\JJ	.
!	!	!	!	!	!	!	!	!	!LO:DY:t=for
.	.	.	.	.	.	.	.	8bb-\L	f
.	.	.	.	.	.	.	.	8ee-\	.
.	.	.	.	.	.	.	.	8ee-\	.
.	.	.	.	.	.	.	.	8ee-\J	.
=65	=65	=65	=65	=65	=65	=65	=65	=65	=65
2.B-/	.	2.f\	.	2.B-\	.	2.a-/	.	8dd\L	.
.	.	.	.	.	.	.	.	16dd\L	.
.	.	.	.	.	.	.	.	16ee-\JJ	.
.	.	.	.	.	.	.	.	8ff\L	.
.	.	.	.	.	.	.	.	8b-\	.
.	.	.	.	.	.	.	.	8b-\	.
.	.	.	.	.	.	.	.	8b-\J	.
!	!	!LO:LB:g=original	!	!	!	!	!	!	!
=66	=66	=66	=66	=66	=66	=66	=66	=66	=66
*	*	*	*	*	*	*tremolo	*	*	*
4.e-\	.	4.g\	.	2.B-\	.	8g/L	.	8ee-\L	.
!	!	!	!LO:DY:t=fo	!	!	!	!	!	!
.	.	.	f	.	.	8b-/	.	16gg\L	.
.	.	.	.	.	.	.	.	16aa-\JJ	.
!	!	!	!	!	!	!	!	!LO:LB:g=original	!
.	.	.	.	.	.	8g/	.	8bb-\L	.
8e-\L	.	8g\L	.	.	.	8b-/	.	8ee-\	.
8e-\	.	8g\	.	.	.	8g/	.	8ee-\	.
8e-\J	.	8g\J	.	.	.	8b-/J	.	8ee-\J	.
!	!	!	!	!	!	!LO:LB:g=original	!	!	!
=67	=67	=67	=67	=67	=67	=67	=67	=67	=67
!	!	!	!	!LO:TX:t=P:problem:takt zapisany repetycją	!	!	!	!	!
4.B-/	.	4.f\	.	2.B-\yy	.	8a-\L	.	8dd\L	.
.	.	.	.	.	.	8b-\	.	16dd\L	.
.	.	.	.	.	.	.	.	16ee-\JJ	.
.	.	.	.	.	.	8a-\	.	8ff\L	.
8B-/L	.	8f\L	.	.	.	8b-\	.	8b-\	.
8B-/	.	8f\	.	.	.	8a-\	.	8b-\	.
8B-/J	.	8f\J	.	.	.	8b-\J	.	8b-\J	.
*	*	*	*	*	*	*Xtremolo	*	*	*
!LO:PB:g=original	!	!	!	!	!	!	!	!	!
=68	=68	=68	=68	=68	=68	=68	=68	=68	=68
!	!	!	!	!	!LO:DY:t=fo	!	!LO:DY:t=fo	!	!
4e-\	.	4e-\	.	2e-\	f	2ee-\	f	2ee-^<\	.
4r	.	4r	.	.	.	.	.	.	.
4r	.	4r	.	4d\	.	4dd\	.	4dd\	.
=69	=69	=69	=69	=69	=69	=69	=69	=69	=69
!LO:N:vis=0	!	!LO:N:vis=0	!	!	!	!	!	!	!
1.r	.	1.r	.	2c\	.	2cc\	.	2cc^<\	.
.	.	.	.	4B-\	.	4b-\	.	4b-\	.
=70	=70	=70	=70	=70	=70	=70	=70	=70	=70
.	.	.	.	4A-\	.	4a-/	.	4a-/	.
.	.	.	.	4G\	.	4g/	.	4g/	.
.	.	.	.	4F#X\	.	4f#X/	.	4f#X/	.
!	!	!	!	!LO:LB:g=original	!	!	!	!	!
=71	=71	=71	=71	=71	=71	=71	=71	=71	=71
8r	.	8r	.	4G\	.	4g/	.	4g/	.
8G/	.	8g\	.	.	.	.	.	.	.
*tremolo	*	*tremolo	*	*	*	*	*	*	*
8G/L	.	8g\L	.	4r	.	4r	.	4r	.
8G/	.	8g\	.	.	.	.	.	.	.
8G/	.	8g\	.	4r	.	4r	.	4r	.
8G/J	.	8g\J	.	.	.	.	.	.	.
*Xtremolo	*	*Xtremolo	*	*	*	*	*	*	*
=72	=72	=72	=72	=72	=72	=72	=72	=72	=72
2.G/	.	2.g\	.	8G\L	.	8BX/L	.	4g/	.
.	.	.	.	16G\L	.	16B/L	.	.	.
.	.	.	.	16An\JJ	.	16c/JJ	.	.	.
.	.	.	.	8Bn\L	.	8d/L	.	4g/	.
.	.	.	.	8c\	.	8e-/	.	.	.
.	.	.	.	8d\	.	8f/	.	4g/	.
.	.	.	.	8c\J	.	8e-/J	.	.	.
!	!	!	!	!	!	!	!	!LO:PB:g=original	!
=73	=73	=73	=73	=73	=73	=73	=73	=73	=73
8r	.	8r	.	4Bn\	.	4d/	.	4g/	.
8G/	.	8g\	.	.	.	.	.	.	.
*tremolo	*	*tremolo	*	*	*	*	*	*	*
8G/L	.	8g\L	.	4r	.	4r	.	4r	.
8G/	.	8g\	.	.	.	.	.	.	.
8G/	.	8g\	.	4r	.	4r	.	4r	.
8G/J	.	8g\J	.	.	.	.	.	.	.
*Xtremolo	*	*Xtremolo	*	*	*	*	*	*	*
=74	=74	=74	=74	=74	=74	=74	=74	=74	=74
!	!	!	!	!	!	!LO:TX:t=P:problem:tt. 74-75 zapisane repetycją	!	!	!
2G/	.	2g\	.	8G\L	.	8BX/Lyy	.	4g/	.
.	.	.	.	16G\L	.	16B/Lyy	.	.	.
.	.	.	.	16An\JJ	.	16c/JJyy	.	.	.
.	.	.	.	8Bn\L	.	8d/Lyy	.	4g/	.
.	.	.	.	8c\	.	8e-/yy	.	.	.
4r	.	4r	.	8d\	.	8f/yy	.	4g/	.
.	.	.	.	8c\J	.	8e-/Jyy	.	.	.
=75	=75	=75	=75	=75	=75	=75	=75	=75	=75
8r	.	8r	.	4Bn\	.	4d/yy	.	4g/	.
8G/	.	8g\	.	.	.	.	.	.	.
*tremolo	*	*tremolo	*	*	*	*	*	*	*
8G/L	.	8g\L	.	4r	.	4ryy	.	4r	.
8G/	.	8g\	.	.	.	.	.	.	.
8G/	.	8g\	.	4r	.	4ryy	.	4r	.
8G/J	.	8g\J	.	.	.	.	.	.	.
*Xtremolo	*	*Xtremolo	*	*	*	*	*	*	*
!	!	!	!	!	!	!LO:LB:g=original	!	!	!
=76	=76	=76	=76	=76	=76	=76	=76	=76	=76
2G/	.	2g\	.	8G\L	.	8BX/L	.	4g/	.
.	.	.	.	16G\L	.	16B/L	.	.	.
.	.	.	.	16An\JJ	.	16c/JJ	.	.	.
.	.	.	.	8Bn\L	.	8d/L	.	4g/	.
.	.	.	.	8c\	.	8e-/	.	.	.
4r	.	4r	.	8d\	.	8f/	.	4g/	.
.	.	.	.	8e-\J	.	8g/J	.	.	.
!	!	!LO:LB:g=original	!	!	!	!	!	!	!
=77	=77	=77	=77	=77	=77	=77	=77	=77	=77
2.r	.	2.r	.	2f\	.	2a-\	.	8bX\L	.
.	.	.	.	.	.	.	.	16b\L	.
.	.	.	.	.	.	.	.	16cc\JJ	.
.	.	.	.	.	.	.	.	8dd\L	.
.	.	.	.	.	.	.	.	8ee-\	.
.	.	.	.	4e-\	.	4g/	.	8ff\	.
.	.	.	.	.	.	.	.	8gg\J	.
=78	=78	=78	=78	=78	=78	=78	=78	=78	=78
!	!	!	!	!LO:TX:b:t=Volti	!	!	!	!	!
4r	.	4r	.	4d;\	.	4f/	.	4aa-X\	.
!	!	!	!	!	!	!LO:TX:b:t=Volti Cito	!	!	!
4r;	.	4r;	.	4ryy	.	4r;	.	4r;	.
!	!	!	!	!LO:LB:g=original	!	!LO:PB:g=original	!LO:DY:t=p.	!	!
4r	.	4r	.	4Bn\	p	4ff\	p	4aa-\	.
!LO:LB:g=original	!	!	!	!	!	!	!	!	!
=79	=79	=79	=79	=79	=79	=79	=79	=79	=79
!LO:TX:a:t=2	!	!	!	!	!	!	!	!	!
!LO:N:vis=0	!	!LO:N:vis=0	!	!	!	!	!	!	!
1.r	.	1.r	.	2c\	.	4ff\	.	(4aa-\	.
.	.	.	.	.	.	4ee-\	.	4gg\)	.
.	.	.	.	4C/	.	4g/	.	4ee-\	.
!	!	!	!	!	!	!	!	!LO:LB:g=original	!
=80	=80	=80	=80	=80	=80	=80	=80	=80	=80
.	.	.	.	2F\	.	2a-/	.	(4ee-\	.
.	.	.	.	.	.	.	.	4dd\)	.
.	.	.	.	4D\	.	4a-/	.	4ee-\|	.
=81	=81	=81	=81	=81	=81	=81	=81	=81	=81
!	!LO:DY:rj	!	!	!	!	!	!	!	!
2G/	p	2g\	p	2G\	.	4e-/	.	2cc\	.
.	.	.	.	.	.	4g/	.	.	.
4G/	.	4g\	.	4GG/	.	4bX\	.	4dd\	.
=82	=82	=82	=82	=82	=82	=82	=82	=82	=82
!	!	!	!	!	!	!LO:SIC:v:s=(4cc#\	!	!	!
2G/	.	2g\	.	4GG/	.	(4b-\	.	4dd\	.
!	!	!	!	!LO:TX:t=P:problem:mixed beam	!	!	!	!	!
.	.	.	.	8C/L	.	4cc\)	.	4ee-\	.
.	.	.	.	8c\	.	.	.	.	.
4r	.	4r	.	8G\	.	4r	.	4r	.
.	.	.	.	8E-\J	.	.	.	.	.
=83	=83	=83	=83	=83	=83	=83	=83	=83	=83
!LO:N:vis=0	!	!LO:N:vis=0	!	!	!	!	!	!	!
1.r	.	1.r	.	4C/	.	4r	.	4r	.
!	!	!	!	!	!	!	!	!	!LO:DY:rj
.	.	.	.	4r	.	4ee-\	.	(4gg\	p
.	.	.	.	4r	.	4cc\	.	4ee-\)	.
=84	=84	=84	=84	=84	=84	=84	=84	=84	=84
.	.	.	.	4F\	.	4r	.	4r	.
.	.	.	.	4r	.	4a-\	.	(4dd\	.
.	.	.	.	4r	.	4a-\	.	4ee-\)	.
=85	=85	=85	=85	=85	=85	=85	=85	=85	=85
!	!	!	!	!	!	!	!LO:DY:rj	!	!LO:DY:rj
2.r	.	2.r	.	4G\	.	2.e-/	fz	2.cc\	fz
.	.	.	.	4r	.	.	.	.	.
.	.	.	.	4r	.	.	.	.	.
=86	=86	=86	=86	=86	=86	=86	=86	=86	=86
!LO:TX:a:t=P:problem:skreślony takt	!LO:HP:a	!	!	!	!LO:HP:a	!	!LO:HP:a	!	!
2.e-\	<[	2.e-\	.	2.G\	<[	2.b-\	<[	2.dd-X\	<[
=87	=87	=87	=87	=87	=87	=87	=87	=87	=87
4E-/	.	4e-\	.	4A-\	.	4a-\	.	8dd-X\L	.
.	.	.	.	.	.	.	.	8cc\	.
!	!	!	!	!	!	!	!	!	!LO:DY:t=for
4r	.	4r	.	4F\	.	4cc\	.	(8bb-\	f
.	.	.	.	.	.	.	.	8aa-\	.
4r	.	4r	.	4A-\	.	4cc\	.	8gg\	.
.	.	.	.	.	.	.	.	8ff\J)	.
!	!	!	!	!LO:LB:g=original	!	!LO:LB:g=original	!	!LO:LB:g=original	!
=88	=88	=88	=88	=88	=88	=88	=88	=88	=88
4B-/	.	4e-\	.	4F\	.	2a-/	.	8ee-\L	.
.	.	.	.	.	.	.	.	8dd\	.
4r	.	4r	.	4D\	.	.	.	(8ff\	.
.	.	.	.	.	.	.	.	8ee-\	.
4r	.	4r	.	4F\	.	4d/	.	8dd\	.
.	.	.	.	.	.	.	.	8cc\J)	.
=89	=89	=89	=89	=89	=89	=89	=89	=89	=89
8e-/L	.	8e-\L	.	8E-\L	.	8e-/L	.	8ee-\L	.
8B-/	.	8b-\	.	8B-\	.	8g/	.	8b-\	.
8G/	.	8g\	.	8G\	.	8g/	.	8g\	.
8B-/	.	8b-\	.	8B-\	.	8b-/	.	8b-\	.
8G/	.	8g\	.	8G\	.	8g/	.	8g\	.
8E-/J	.	8e-\J	.	8E-\J	.	8e-/J	.	8e-\J	.
=90	=90	=90	=90	=90	=90	=90	=90	=90	=90
*	*	*	*	*tremolo	*	*	*	*	*
4BB-/	.	4B-/	.	8BB-/L	.	4B-/	.	4B-/	.
.	.	.	.	8BB-/	.	.	.	.	.
8B-\L	.	8f\L	.	8BB-/	.	8a-/L	.	4r	.
8e-\	.	8g\	.	8BB-/	.	8g/	.	.	.
8f\	.	8a-\	.	8BB-/	.	8d/	.	4r	.
8e-\J	.	8g\J	.	8BB-/J	.	8e-/J	.	.	p
!LO:LB:g=original	!	!LO:LB:g=original	!	!	!	!	!	!	!
=91	=91	=91	=91	=91	=91	=91	=91	=91	=91
!	!	!	!	!	!	!	!	!LO:TX:t=P:problem:mixed beam	!
4B-/	.	4f\	.	8BB-/L	.	4f/	.	8d/L	.
.	.	.	.	8BB-/	.	.	.	16b-\L	.
.	.	.	.	.	.	.	.	16cc\JJ	.
4r	.	4r	.	8BB-/	.	4r	.	8dd\L	.
.	.	.	.	8BB-/	.	.	.	8ee-\	.
4r	.	4r	.	8BB-/	.	4r	.	8ff\	.
.	.	.	.	8BB-/J	.	.	.	8dd\J	.
=92	=92	=92	=92	=92	=92	=92	=92	=92	=92
4r	.	4r	.	8BB-/L	.	4d/	.	4b-\	.
.	.	.	.	8BB-/	.	.	.	.	.
8B-\L	.	8f\L	.	8BB-/	.	8a-/L	.	4r	.
8e-\	.	8g\	.	8BB-/	.	8g/	.	.	.
8f\	.	8a-\	.	8BB-/	.	8d/	.	4r	.
8e-\J	.	8g\J	.	8BB-/J	.	8e-/J	.	.	.
=93	=93	=93	=93	=93	=93	=93	=93	=93	=93
4B-/	.	4f\	.	8BB-/L	.	4f/	.	8b-\L	.
.	.	.	.	8BB-/	.	.	.	16b-\L	.
.	.	.	.	.	.	.	.	16cc\JJ	.
4r	.	4r	.	8BB-/	.	4r	.	8dd\L	.
.	.	.	.	8BB-/	.	.	.	8ee-\	.
4r	.	4r	.	8BB-/	.	4r	.	8ff\	.
.	.	.	.	8BB-/J	.	.	.	8dd\J	.
!	!	!	!	!	!	!	!	!LO:LB:g=original	!
=94	=94	=94	=94	=94	=94	=94	=94	=94	=94
4r	.	4r	.	8BB-/L	.	4d/	.	4b-\	.
.	.	.	.	8BB-/	.	.	.	.	.
8B-\L	.	8f\L	.	8BB-/	.	8a-/L	.	8r	.
8B-\	.	8f\	.	8BB-/	.	8a-/	.	8b-\L	.
8e-\	.	8g\	.	8BB-/	.	8g/	.	8bb-\	.
8e-\J	.	8g\J	.	8BB-/J	.	8f/J	.	8bb-\J	.
=95	=95	=95	=95	=95	=95	=95	=95	=95	=95
4B-/	.	4f\	.	8BB-/L	.	4d/	.	4bb-\	.
.	.	.	.	8BB-/	.	.	.	.	.
8B-/L	.	8f\L	.	8BB-/	.	8a-/L	.	8r	.
8B-/	.	8f\	.	8BB-/	.	8a-/	.	8b-\L	.
8e-/	.	8g\	.	8BB-/	.	8g/	.	8bb-\	.
8e-/J	.	8g\J	.	8BB-/J	.	8f/J	.	8bb-\J	.
*	*	*	*	*Xtremolo	*	*	*	*	*
!	!	!	!	!	!	!LO:LB:g=original	!	!	!
=96	=96	=96	=96	=96	=96	=96	=96	=96	=96
*tremolo	*	*tremolo	*	*	*	*tremolo	*	*	*
8B-\L	.	8f\L	.	4BB-/	.	8d/L	.	4b-\	.
8e-\	.	8g\	.	.	.	8f/	.	.	.
8B-\	.	8f\	.	4BB-/	.	8d/	.	4b-\	.
8e-\	.	8g\	.	.	.	8f/	.	.	.
8B-\	.	8f\	.	4BB-/	.	8d/	.	4b-\	.
8e-\J	.	8g\J	.	.	.	8f/J	.	.	.
*Xtremolo	*	*Xtremolo	*	*	*	*Xtremolo	*	*	*
=97	=97	=97	=97	=97	=97	=97	=97	=97	=97
4B-/	.	8f\L	.	4BB-/	.	8d/L	.	4b-\	.
.	.	8b-\	.	.	.	8B-/	.	.	.
8r	.	8a-\	.	4r	.	8c/	.	4r	.
8B-/L	.	8a--X\	.	.	.	8d/	.	.	.
8c/	.	8g\	.	4r	.	8e-/	.	4r	.
8d/J	.	8f\J	.	.	.	8f/J	.	.	.
!LO:LB:g=original	!	!	!	!	!	!	!	!	!
=98	=98	=98	=98	=98	=98	=98	=98	=98	=98
4e-\	.	4e-\	.	8r	.	4g/	.	4ee- 4b-\	.
!	!	!	!	!LO:TX:t=P:problem:mixed beam	!	!	!	!	!
.	.	.	.	8E-\L	.	.	.	.	.
4r	.	4r	.	8EE-/J	.	4r	.	8r	.
.	.	.	.	8r	.	.	.	8e-/L	.
4r	.	4r	.	4r	.	4r	.	8d/	.
.	.	.	.	.	.	.	.	8e-/J	.
!	!	!	!	!LO:LB:g=original	!	!	!	!	!
=99	=99	=99	=99	=99	=99	=99	=99	=99	=99
!LO:TX:b:t=pausen	!	!	!	!	!	!	!	!	!
!LO:TX:a:t=1	!	!	!	!	!	!LO:TX:a:t=1	!	!	!
2.r	.	2.r	.	2.r	.	2.r	.	8g/L	.
.	.	.	.	.	.	.	.	8e-/	.
.	.	.	.	.	.	.	.	8b-/	.
.	.	.	.	.	.	.	.	8g/	.
.	.	.	.	.	.	.	.	8ee-/	.
.	.	.	.	.	.	.	.	8b-/J	.
=100	=100	=100	=100	=100	=100	=100	=100	=100	=100
4G/	.	4e-\	.	8r	.	4b-\	.	4gg\	.
!	!	!	!	!LO:TX:t=P:problem:mixed beam	!	!	!	!	!
.	.	.	.	8E-\L	.	.	.	.	.
4r	.	4r	.	8EE-/J	.	4r	.	8r	.
.	.	.	.	8r	.	.	.	8gg\L	.
4r	.	4r	.	4r	.	4r	.	8dd\	.
.	.	.	.	.	.	.	.	8ee-\J	.
!	!	!LO:LB:g=original	!	!	!	!	!	!LO:LB:g=original	!
=101	=101	=101	=101	=101	=101	=101	=101	=101	=101
2.r	.	2.r	.	2.r	.	2.r	.	8a/L	.
.	.	.	.	.	.	.	.	8b-/	.
.	.	.	.	.	.	.	.	8f#X/	.
.	.	.	.	.	.	.	.	8g/	.
.	.	.	.	.	.	.	.	8d/	.
.	.	.	.	.	.	.	.	8e-/J	.
=102	=102	=102	=102	=102	=102	=102	=102	=102	=102
4B-/	.	4b-\	.	8r	.	4B-/	.	4d/	.
!	!	!	!	!LO:TX:t=P:problem:mixed beam	!	!	!	!	!
.	.	.	.	8F\L	.	.	.	.	.
4r	.	4r	.	8FF/J	.	4r	.	8r	.
.	.	.	.	8r	.	.	.	8d/L	.
4r	.	4r	.	4r	.	4r	.	8c#X/	.
.	.	.	.	.	.	.	.	8d/J	.
=103	=103	=103	=103	=103	=103	=103	=103	=103	=103
2.r	.	2.r	.	2.r	.	2.r	.	8f/L	.
.	.	.	.	.	.	.	.	8d/	.
.	.	.	.	.	.	.	.	8b-/	.
.	.	.	.	.	.	.	.	8f/	.
.	.	.	.	.	.	.	.	8dd/	.
.	.	.	.	.	.	.	.	8b-/J	.
=104	=104	=104	=104	=104	=104	=104	=104	=104	=104
4B-/	.	4b-\	.	8r	.	4b-\	.	4ff\	.
!	!	!	!	!LO:TX:t=P:problem:mixed beam	!	!	!	!	!
.	.	.	.	8D\L	.	.	.	.	.
4r	.	4r	.	8DD/J	.	4r	.	8r	.
.	.	.	.	8r	.	.	.	8aa-\L	.
4r	.	4r	.	4r	.	4r	.	8eeX\	.
.	.	.	.	.	.	.	.	8ff\J	.
=105	=105	=105	=105	=105	=105	=105	=105	=105	=105
2.r	.	2.r	.	2.r	.	2.r	.	8cc#X\L	.
.	.	.	.	.	.	.	.	8dd\	.
.	.	.	.	.	.	.	.	8a\	.
.	.	.	.	.	.	.	.	8b-\	.
.	.	.	.	.	.	.	.	8a-X\	.
.	.	.	.	.	.	.	.	8f\J	.
!	!	!	!	!	!	!LO:LB:g=original	!	!	!
=106	=106	=106	=106	=106	=106	=106	=106	=106	=106
!	!	!	!	!LO:TX:t=P:problem:mixed beam	!	!	!	!	!LO:DY:rj:t=fo
2.E-/	.	2.e-\	.	8EE-/L	.	2.G/	.	2.e-/	f
.	.	.	.	8E-\J	.	.	.	.	.
*	*	*	*	*tremolo	*	*	*	*	*
.	.	.	.	8E-\L	.	.	.	.	.
.	.	.	.	8E-\	.	.	.	.	.
.	.	.	.	8E-\	.	.	.	.	.
.	.	.	.	8E-\J	.	.	.	.	.
=107	=107	=107	=107	=107	=107	=107	=107	=107	=107
!	!	!	!	!LO:TX:t=P:problem:mixed beam	!	!	!	!	!
2.E-/	.	2.e-\	.	8EE-/L	.	2.c/	.	2.a-\	.
.	.	.	.	8E-\J	.	.	.	.	.
.	.	.	.	8E-\L	.	.	.	.	.
.	.	.	.	8E-\	.	.	.	.	.
.	.	.	.	8E-\	.	.	.	.	.
.	.	.	.	8E-\J	.	.	.	.	.
!	!	!	!	!LO:LB:g=original	!	!	!	!LO:LB:g=original	!
=108	=108	=108	=108	=108	=108	=108	=108	=108	=108
!	!	!	!	!LO:TX:t=P:problem:mixed beam	!	!	!	!	!
2.B-/	.	2.f\	.	8EE-/L	.	2.A-/	.	2.f/	.
.	.	.	.	8E-\J	.	.	.	.	.
.	.	.	.	8E-\L	.	.	.	.	.
.	.	.	.	8E-\	.	.	.	.	.
.	.	.	.	8E-\	.	.	.	.	.
.	.	.	.	8E-\J	.	.	.	.	.
=109	=109	=109	=109	=109	=109	=109	=109	=109	=109
!	!	!	!	!LO:TX:t=P:problem:mixed beam	!	!	!	!	!
2.B-/	.	2.f\	.	8EE-/L	.	2.d/	.	2.b-\	.
.	.	.	.	8E-\J	.	.	.	.	.
.	.	.	.	8E-\L	.	.	.	.	.
.	.	.	.	8E-\	.	.	.	.	.
.	.	.	.	8E-\	.	.	.	.	.
.	.	.	.	8E-\J	.	.	.	.	.
*	*	*	*	*Xtremolo	*	*	*	*	*
=110	=110	=110	=110	=110	=110	=110	=110	=110	=110
*	*	*	*	*	*	*tremolo	*	*	*
8r	.	8r	.	2.e-\	p	8g\L	.	2.ee-\	.
8E-/	.	8e-\	.	.	.	8b-\	.	.	.
*tremolo	*	*tremolo	*	*	*	*	*	*	*
8E-/L	.	8e-\L	.	.	.	8g\	.	.	.
8E-/	.	8e-\	.	.	.	8b-\	.	.	.
8E-/	.	8e-\	.	.	.	8g\	.	.	.
8E-/J	.	8e-\J	.	.	.	8b-\J	.	.	.
!LO:LB:g=original	!	!	!	!	!	!	!	!	!
=111	=111	=111	=111	=111	=111	=111	=111	=111	=111
8r	.	8r	.	2.c\	.	8ee-\L	.	2.aa-\	.
8E-/	.	8e-\	.	.	.	8cc\	.	.	.
8E-/L	.	8e-\L	.	.	.	8ee-\	.	.	.
8E-/	.	8e-\	.	.	.	8cc\	.	.	.
8E-/	.	8e-\	.	.	.	8ee-\	.	.	.
8E-/J	.	8e-\J	.	.	.	8cc\J	.	.	.
=112	=112	=112	=112	=112	=112	=112	=112	=112	=112
!	!	!LO:TX:t=P:problem:tt. 112-113 zapisane repetycją	!	!	!	!	!	!	!
8r	.	8ryy	.	2.d\	.	8a-\L	.	2.ff\	.
8E-/	.	8e-\yy	.	.	.	8b-\	.	.	.
8E-/L	.	8e-\Lyy	.	.	.	8a-\	.	.	.
8E-/	.	8e-\yy	.	.	.	8b-\	.	.	.
8E-/	.	8e-\yy	.	.	.	8a-\	.	.	.
8E-/J	.	8e-\Jyy	.	.	.	8b-\J	.	.	.
=113	=113	=113	=113	=113	=113	=113	=113	=113	=113
8r	.	8ryy	.	2.B-\	.	8dd\L	.	2.bb-\	.
8E-/	.	8e-\yy	.	.	.	8b-\J	.	.	.
8E-/L	.	8e-\Lyy	.	.	.	8ff\L	.	.	.
8E-/	.	8e-\yy	.	.	.	8dd\	.	.	.
8E-/	.	8e-\yy	.	.	.	8ff\	.	.	.
8E-/J	.	8e-\Jyy	.	.	.	8dd\J	.	.	.
*Xtremolo	*	*Xtremolo	*	*	*	*Xtremolo	*	*	*
=114	=114	=114	=114	=114	=114	=114	=114	=114	=114
!	!	!	!	!	!	!	!LO:DY:t=for	!	!
4E-/	.	4e-\	.	4e-\	.	8ee-\L	f	8gg\L	.
.	.	.	.	.	.	8gg\	.	8bb-\	.
4r	.	4r	.	4r	.	8ff\	.	8bb-\	.
.	.	.	.	.	.	8ee-\	.	8gg\	.
4r	.	4r	.	4r	.	8dd\	.	8ff\	.
.	.	.	.	.	.	8ee-\J	.	8gg\J	.
!	!	!	!	!	!	!LO:LB:g=original	!	!	!
=115	=115	=115	=115	=115	=115	=115	=115	=115	=115
2.r	.	2.r	.	8c\L	.	4ee-\	.	8aa-\L	.
.	.	.	.	8B-\	.	.	.	8gg\	.
!	!	!	!	!	!	!LO:TX:t=P:problem:mixed beam	!	!	!
.	.	.	.	8A-\	.	8cc\L	.	8ff\	.
.	.	.	.	8G\	.	8b-\	.	8ee-\	.
.	.	.	.	8A-\	.	8f/	.	8dd\	.
.	.	.	.	8An\J	.	8e-/J	.	8cc\J	.
=116	=116	=116	=116	=116	=116	=116	=116	=116	=116
4B-/	.	4f\	.	4B-\	.	4d/	.	8b-\L	.
.	.	.	.	.	.	.	.	8f\	.
4B-/	.	4f\	.	4BB-/	.	4d/	.	8b-\	.
.	.	.	.	.	.	.	.	8dd\	.
4B-/	.	4f\	.	4BB-/	.	4d/	.	8ff\	.
.	.	.	.	.	.	.	.	8dd\J	.
!	!	!LO:LB:g=original	!	!LO:LB:g=original	!	!	!	!	!
=117	=117	=117	=117	=117	=117	=117	=117	=117	=117
4B-/	.	4f\	.	8BB-\L	.	4d/	.	4b-\	.
.	.	.	.	16D\L	.	.	.	.	.
.	.	.	.	16F\JJ	.	.	.	.	.
4r	.	4r	.	8B-\L	.	4r	.	4r	.
.	.	.	.	8A-\	.	.	.	.	.
4r	.	4r	.	8G\	.	4r	.	4r	.
.	.	.	.	8F\J	.	.	.	.	.
!	!	!	!	!	!	!	!	!LO:LB:g=original	!
=118	=118	=118	=118	=118	=118	=118	=118	=118	=118
!LO:N:vis=00	!	!LO:N:vis=00	!	!	!	!	!LO:DY:rj	!	!
0.r	.	0.r	.	4E-\	.	2.b-\	p	8r	.
.	.	.	.	.	.	.	.	8g/	.
*	*	*	*	*	*	*	*	*tremolo	*
.	.	.	.	4r	.	.	.	8e-/L	.
.	.	.	.	.	.	.	.	8g/	.
.	.	.	.	4r	.	.	.	8e-/	.
.	.	.	.	.	.	.	.	8g/J	.
=119	=119	=119	=119	=119	=119	=119	=119	=119	=119
.	.	.	.	4En\	.	2g/	.	8r	.
.	.	.	.	.	.	.	.	8g/	.
.	.	.	.	4r	.	.	.	8eX/L	.
.	.	.	.	.	.	.	.	8g/	.
.	.	.	.	4r	.	4cc\	.	8e/	.
.	.	.	.	.	.	.	.	8g/J	.
=120	=120	=120	=120	=120	=120	=120	=120	=120	=120
.	.	.	.	8r	.	(4b-\	.	8r	.
!	!	!	!	!LO:TX:t=P:problem:mixed beam	!	!	!	!	!
.	.	.	.	8FF/L	.	.	.	8c/L	.
.	.	.	.	8F\	.	4a-\)	.	8a-/	.
.	.	.	.	8E-\	.	.	.	8g/	.
.	.	.	.	8D\	.	4a-\|	.	8f/	.
.	.	.	.	8C\J	.	.	.	8e-/J	.
=121	=121	=121	=121	=121	=121	=121	=121	=121	=121
.	.	.	.	8BB-/L	.	2a-\	.	8d/L	.
.	.	.	.	8AAn/	.	.	.	8c/	.
.	.	.	.	8BB-/	.	.	.	8d/	.
.	.	.	.	8C/	.	.	.	8e-/	.
.	.	.	.	8D/	.	4r	.	8f/	.
.	.	.	.	8C/J	.	.	.	8e-/J	.
=122	=122	=122	=122	=122	=122	=122	=122	=122	=122
!LO:N:vis=0	!	!LO:N:vis=0	!	!	!	!	!	!	!
1.r	.	1.r	.	4BB-/	.	2.a-\	.	8r	.
.	.	.	.	.	.	.	.	8d/	.
.	.	.	.	4r	.	.	.	8B-/L	.
.	.	.	.	.	.	.	.	8d/	.
.	.	.	.	4r	.	.	.	8B-/	.
.	.	.	.	.	.	.	.	8d/J	.
=123	=123	=123	=123	=123	=123	=123	=123	=123	=123
.	.	.	.	4D\	.	2f/	.	8r	.
.	.	.	.	.	.	.	.	8f/	.
.	.	.	.	4r	.	.	.	8d/L	.
.	.	.	.	.	.	.	.	8f/	.
.	.	.	.	4r	.	4b-\	.	8d/	.
.	.	.	.	.	.	.	.	8f/J	.
*	*	*	*	*	*	*	*	*Xtremolo	*
!	!	!	!	!LO:LB:g=original	!	!LO:LB:g=original	!	!LO:LB:g=original	!
=124	=124	=124	=124	=124	=124	=124	=124	=124	=124
2.r	.	2.r	.	4E-\	.	(4b-\	.	8r	.
.	.	.	.	.	.	.	.	8B-/L	.
.	.	.	.	4r	.	4a-\)	.	8g/	.
.	.	.	.	.	.	.	.	8e-/	.
.	.	.	.	4r	.	4g\|	.	8b-/	.
.	.	.	.	.	.	.	.	8g/J	.
=125	=125	=125	=125	=125	=125	=125	=125	=125	=125
!	!	!	!	!	!	!	!	!LO:TX:t=P:problem:mixed beam	!
4r	.	4r	.	2.r	.	2g/	.	8ee-\L	.
.	.	.	.	.	.	.	.	8e-/	.
4g\	.	4b-\	.	.	.	.	.	8g/	.
.	.	.	.	.	.	.	.	8b-/J	.
4e-\	.	4g\	.	.	.	4r	.	8ee-\L	.
.	.	.	.	.	.	.	.	8gg\J	.
!LO:LB:g=original	!	!	!	!	!	!	!	!	!
=126	=126	=126	=126	=126	=126	=126	=126	=126	=126
4G/	.	4e-\	.	8r	.	2.r	.	2.bb-\	.
.	.	.	.	8GG/L	.	.	.	.	.
4r	.	4r	.	8BB-/	.	.	.	.	.
.	.	.	.	8D/	.	.	.	.	.
4r	.	4r	.	8G/	.	.	.	.	.
.	.	.	.	8F/J	.	.	.	.	.
=127	=127	=127	=127	=127	=127	=127	=127	=127	=127
!	!	!	!	!	!	!	!LO:DY:t=fo	!	!
2.G/	.	2.g\	.	8En\L	.	2.cc\	f	2.bb-\	.
.	.	.	.	8D\	.	.	.	.	.
.	.	.	.	8E\	.	.	.	.	.
.	.	.	.	8C\	.	.	.	.	.
.	.	.	.	8D\	.	.	.	.	.
.	.	.	.	8E\J	.	.	.	.	.
=128	=128	=128	=128	=128	=128	=128	=128	=128	=128
!	!	!	!	!LO:TX:t=P:problem:mixed beam	!	!	!	!	!
2.r	.	2.r	.	8F\L	.	2.cc\	.	2.aa-\	.
.	.	.	.	8FF/	.	.	.	.	.
.	.	.	.	8AA-/	.	.	.	.	.
.	.	.	.	8C/J	.	.	.	.	.
.	.	.	.	8F\L	.	.	.	.	.
.	.	.	.	8En\J	.	.	.	.	.
=129	=129	=129	=129	=129	=129	=129	=129	=129	=129
2.B-/	.	2.f\	.	8D/L	.	2.b-\	.	2.aa-\	.
.	.	.	.	8C/	.	.	.	.	.
.	.	.	.	8D/	.	.	.	.	.
.	.	.	.	8BB-/	.	.	.	.	.
.	.	.	.	8C/	.	.	.	.	.
.	.	.	.	8D/J	.	.	.	.	.
=130	=130	=130	=130	=130	=130	=130	=130	=130	=130
4e-\	.	4g\	.	4E-\	.	4b-\	.	4gg\	p
4r	.	4r	.	4F\	.	4r	.	4aa-\	.
4r	.	4r	.	4G\	.	4r	.	4bb-\	.
!	!	!	!	!LO:LB:g=original	!	!	!	!	!
=131	=131	=131	=131	=131	=131	=131	=131	=131	=131
2.B-/	.	2f\	.	2A-\	fz	2b-\	fz	4.dd\	fz
.	.	.	.	.	.	.	.	16ee-\LL	.
.	.	.	.	.	.	.	.	16ff\JJ	.
.	.	4g\	.	4G\	.	4b-\	.	4ee-\	.
!	!	!	!	!	!	!	!	!LO:LB:g=original	!
=132	=132	=132	=132	=132	=132	=132	=132	=132	=132
4e-\	.	2.r	.	4E-\	.	4b-\	.	4gg\	.
!	!	!	!	!	!	!	!	!	!LO:DY:rj
4r	.	.	.	4F\	.	4r	.	4aa-\	p
!LO:TX:t=P:problem:wykreślone 2 takty	!	!	!	!	!	!	!	!	!
4r	.	.	.	4G\	.	4r	.	4bb-\	.
=133	=133	=133	=133	=133	=133	=133	=133	=133	=133
2B-/	.	2f\	.	2D\	fz	2b-\	fz	4.ff\	fz
.	.	.	.	.	.	.	.	16gg\LL	.
.	.	.	.	.	.	.	.	16aa-\JJ	.
4G/	.	4e-\	.	4E-\	.	4b-\	.	4gg\	.
!	!	!	!	!	!	!LO:LB:g=original	!	!	!
=134	=134	=134	=134	=134	=134	=134	=134	=134	=134
.	.	.	.	.	.	.	.	8qqgg/	.
4r	.	4r	.	4A-\	.	8cc\L	.	4ff\	.
.	.	.	.	.	.	8a-\J	.	.	.
!LO:LB:g=original	!	!	!	!	!	!	!	!	!
4G/	.	4e-\	.	4B-\	.	4g/	.	4ee-\	.
4B-/	.	4f\	.	4BB-/	.	4f/	.	4dd\	.
!	!	!LO:LB:g=original	!	!	!	!	!	!	!
=135	=135	=135	=135	=135	=135	=135	=135	=135	=135
!	!	!	!	!LO:TX:t=P:problem:mixed beam	!	!	!	!	!
8r	.	8r	.	8EE-/L	.	4g/	.	4ee-\	.
8B-/L	.	8g\L	.	8E-\	.	.	.	.	.
8B-/J	.	8g\J	.	8EE-/J	.	8r	.	8r	.
8r	.	8r	.	8r	.	8ee-\L	.	8gg\L	.
4r	.	4r	.	4r	.	8dd\	.	8ff\	.
.	.	.	.	.	.	8ee-\J	.	8gg\J	.
=136	=136	=136	=136	=136	=136	=136	=136	=136	=136
8r	.	8r	.	8r	.	4ff\	.	4aa-\	.
!	!	!	!	!LO:TX:t=P:problem:mixed beam	!	!	!	!	!
8B-/L	.	8f\L	.	8B-\L	.	.	.	.	.
8B-/J	.	8g\J	.	8BB-/	.	8r	.	8r	.
8r	.	8r	.	8A-\	.	8b-\L	.	8dd\L	.
4r	.	4r	.	8G\	.	8cc\	.	8ee-\	.
.	.	.	.	8F\J	.	8dd\J	.	8ff\J	.
=137	=137	=137	=137	=137	=137	=137	=137	=137	=137
8r	.	8r	.	8E-\L	.	4ee-\	.	4gg\	.
8B-/L	.	8g\L	.	8e-\	.	.	.	.	.
8B-/J	.	8g\J	.	8E-\J	.	8r	.	8r	.
8r	.	8r	.	8r	.	8ee-\L	.	8gg\L	.
4r	.	4r	.	4r	.	8dd\	.	8ff\	.
.	.	.	.	.	.	8ee-\J	.	8gg\J	.
!	!	!	!	!	!	!	!	!LO:LB:g=original	!
=138	=138	=138	=138	=138	=138	=138	=138	=138	=138
8r	.	8r	.	8r	.	4ff\	.	4aa-\	.
!	!	!	!	!LO:LB:g=original	!	!	!	!	!
!	!	!	!	!LO:TX:t=P:problem:mixed beam	!	!	!	!	!
8B-/L	.	8f\L	.	8B-\L	.	.	.	.	.
8B-/J	.	8f\J	.	8BB-/	.	8r	.	8r	.
8r	.	8r	.	8A-\	.	8b-\L	.	8dd\L	.
4r	.	4r	.	8G\	.	8cc\	.	8ee-\	.
.	.	.	.	8F\J	.	8dd\J	.	8ff\J	.
=139	=139	=139	=139	=139	=139	=139	=139	=139	=139
*	*	*	*	*tremolo	*	*	*	*	*
4B-/	.	4g\	.	8E-\L	.	8ee-\L	.	8gg\L	.
.	.	.	.	8BB-\	.	8gg\	.	8bb-\	.
4B-/	.	4g\	.	8E-\	.	8ee-\	.	8gg\	.
.	.	.	.	8BB-\	.	8gg\	.	8bb-\	.
4B-/	.	4g\	.	8E-\	.	8ee-\	.	8gg\	.
.	.	.	.	8BB-\J	.	8gg\J	.	8bb-\J	.
!	!	!	!	!	!	!LO:LB:g=original	!	!	!
=140	=140	=140	=140	=140	=140	=140	=140	=140	=140
4B-/	.	4g\	.	8E-\L	.	8ee-\L	.	8gg\L	.
.	.	.	.	8BB-\	.	8gg\	.	8bb-\	.
4B-/	.	4g\	.	8E-\	.	8ee-\	.	8gg\	.
.	.	.	.	8BB-\	.	8gg\	.	8bb-\	.
4B-/	.	4g\	.	8E-\	.	8ee-\	.	8gg\	.
.	.	.	.	8BB-\J	.	8gg\J	.	8bb-\J	.
*	*	*	*	*Xtremolo	*	*	*	*	*
=141	=141	=141	=141	=141	=141	=141	=141	=141	=141
!	!	!	!	!LO:TX:t=P:problem:mixed beam	!	!	!	!	!
4B-/	.	4g\	.	8E-\L	.	4ee-\	.	4gg\	.
.	.	.	.	8E-\	.	.	.	.	.
4G/	.	4e-\	.	8G\	.	4g/	.	4ee-\	.
.	.	.	.	8E-\	.	.	.	.	.
4G/	.	4e-\	.	8BB-/	.	4g/	.	4ee-\	.
.	.	.	.	8GG/J	.	.	.	.	.
=142	=142	=142	=142	=142	=142	=142	=142	=142	=142
!LO:TX:b:t=97	!	!LO:TX:b:t=97	!	!	!	!	!	!	!
2G/	.	2e-\	.	2EE-/	.	2g/	.	2ee-\	.
!	!	!	!	!LO:TX:b:t=97	!	!LO:TX:b:t=97	!	!LO:TX:b:t=97	!
4ryy	.	4ryy	.	4r	.	4r	.	4r	.
==	==	==	==	==	==	==	==	==	==
*-	*-	*-	*-	*-	*-	*-	*-	*-	*-
!!!system-decoration: [(s1,s2,s3)][(s4,s5)]
!!!RDF**kern: > = above
!!!RDF**kern: < = below
!!!RDF**kern: | = vertical stroke
!!!AIN: 2 clars 2 cor 1 fagot
!!!ENC: Krzysztof Stępień
!!!END: 2021-06-16
!!!ENC: Marta Lawrence
!!!END: 2021-06-23
